X:1
T:Title
%%score { ( 1 4 ) | ( 2 3 ) }
L:1/8
M:3/4
K:G
V:1 treble nm="Grand Piano"
V:4 treble 
V:2 bass 
V:3 bass 
V:1
 z2 z[Q:1/4=84] G FE | [B,D]3 E [B,D]C | [G,B,]3 G FG | A4[K:bass][K:treble] z2 |[M:3/8] [B,G]3 | %5
 [DB][DB][CA] |[M:3/4] [B,G]3 G [CA]B | [Ec]3 [Ec] [DB][CA] | [B,G]2 A2 [A,F]2 |[M:3/8] [B,G]3 | %10
 ddd |[M:3/4] [Fd]3 [EFc] [FB][F_B] | B3 B BB | A2 d2 [EG^c]2 | [DFd]3 [Fd] [Gd][Ac] | %15
 [GB]3 [GB] [Gc][Gd] |[M:15/16] [Ge]3/2- [Ge]3 [Ge][Gd]/-[Gd]/[G^c] |[M:3/4] d2- [CAd]2 [Fc]2 | %18
 [DB]3 [EAc] [DGB][CA] | D2- [DA]2 [A,DF]2 |[M:3/8] [B,DG]3 |] %21
V:2
 z2 z B, DC | G,,D, z C z A, | G,,D,, z B, A,B, | C-[^D,C-] [=D,C]2 D2 |[M:3/8] G,,D,G, | D,E,F, | %6
[M:3/4] G,D, z B, z D | C,G, CA,, B,,C, | D,4 z2 |[M:3/8] G,,3 | [G,B,G][B,DG][G,B,G] | %11
[M:3/4][K:bass] [D,A,]3 D, [D,D][D,D] | [G,DG]3 [G,DG] [G,DG][G,DG] | [A,D]2 z2[K:bass] z2 | %14
 D,3 [D,C] [E,B,][F,D] | [G,D]3 [=F,D] [E,C][D,B,] | %16
[M:15/16] [C,C]3/2- [C,C]3 [^C,_B,][D,B,]/-[D,B,]/[^D,B,] |[M:3/4] B,2 z2 z2 | G,3 A,, B,,C, | %19
 z2 C2 D,2 |[M:3/8] G,,3 |] %21
V:3
 x6 | z2 G,2 D,2 | z2 G,,2 z2 | .[D,F,]2 z2 z2 |[M:3/8] x3 | x3 |[M:3/4] z2 G,2 G,2 | x6 | %8
 z2 C2 D,,2 |[M:3/8] x3 | x3 |[M:3/4][K:bass] x6 | x6 | F2- [A,F]2[K:bass] A,,2 | x6 | x6 | %16
[M:15/16] x15/2 |[M:3/4] D,4 [D,A,]2 | x6 | D,4 z2 |[M:3/8] x3 |] %21
V:4
 x6 | x6 | x6 | z[K:bass] G, F,2[K:treble] B2 |[M:3/8] x3 | x3 |[M:3/4] x6 | x6 | x6 |[M:3/8] x3 | %10
 x3 |[M:3/4] x6 | x6 | x6 | x6 | x6 |[M:15/16] x15/2 |[M:3/4] G2 z2 z2 | x6 | [B,G]2 z2 z2 | %20
[M:3/8] x3 |] %21

